packages/foundations/assets/icons/functional/images/transportation/electric_car_32_inverted.svg

<svg width="32" height="32" viewBox="0 0 32 32" fill="none" xmlns="http://www.w3.org/2000/svg">
<g clip-path="url(#clip0_2214_6724)">
<path fill-rule="evenodd" clip-rule="evenodd" d="M22.4383 5.18084C23.3217 5.22364 24.1907 5.61135 24.7254 6.33014C25.0056 6.70678 24.9274 7.23926 24.5508 7.51947C24.2055 7.77633 23.6603 7.74039 23.3615 7.34486C23.1724 7.09078 22.845 6.90726 22.4383 6.88084C20.3129 6.79269 18.1627 6.6953 16.0248 6.69613C13.8704 6.69696 11.707 6.74499 9.56138 6.88584C9.07252 6.92293 8.5729 7.2601 8.44662 7.77825C8.14765 9.01764 7.70549 10.7581 7.12012 12.9996C11.0571 12.9044 14.017 12.8569 15.9998 12.8571C16.6521 12.8571 17.5134 12.8778 18.0016 12.8956C18.0569 11.2874 19.3781 10.0006 20.9998 10.0006C20.9998 9.50064 21.4998 9.00064 21.9998 9.00064H24.9998C25.4998 9.00064 25.9998 9.50064 25.9998 10.0006C27.6567 10.0006 28.9998 11.3438 28.9998 13.0006C29.4998 13.0006 29.9998 13.5006 29.9998 14.0006C29.9998 14.334 29.9998 14.6673 29.9998 15.0006C29.9998 15.5006 29.4998 16.0006 28.9991 15.9996C28.9996 16.667 28.9998 19.334 28.9998 24.0006C28.9998 25.6575 27.6567 27.0006 25.9998 27.0006H20.9998C19.4469 27.0006 18.1696 25.8208 18.0154 24.3086C17.5623 24.336 16.8034 24.3497 15.7385 24.3497C14.6737 24.3497 12.4274 24.2333 8.99954 24.0006L8.99982 25.0006C8.99982 25.4464 8.44558 26.0006 7.99982 26.0006H5.99982C5.49982 26.0006 4.99982 25.5006 4.99982 25.0006L4.98402 22.7008C4.77979 22.3622 4.64186 21.9598 4.576 21.5068L4.21865 17.8525C4.15398 16.8638 4.12839 16.2461 4.14189 15.9995L2.96712 16.0005C2.41412 16.0005 2.00012 15.5185 2.00012 14.9665V13.9665C2.00012 13.4135 2.41412 13.0005 2.96712 13.0005L5.37012 12.9996L6.79647 7.36961C7.09923 6.15856 8.16142 5.24781 9.56138 5.18584C12.769 5.085 14.4139 4.98717 16.0359 5.00064C17.6336 5.01391 19.8669 5.09239 22.4383 5.18084ZM25.9998 11.7006C24.4752 11.7006 22.8085 11.7006 20.9998 11.7006C20.3267 11.7006 19.6991 12.2713 19.6991 13.0006C19.6991 14.4438 19.6994 18.1105 19.6998 24.0006C19.6998 24.6737 20.329 25.3006 20.9998 25.3006C21.5574 25.3006 23.2241 25.3006 25.9998 25.3006C26.6729 25.3006 27.2109 24.8549 27.2998 24.0006C27.2998 22.5577 27.2998 18.891 27.2998 13.0006C27.2998 12.3275 26.6851 11.7006 25.9998 11.7006ZM12.3601 17.8269C11.9326 17.8981 11.5962 18.2793 11.6614 18.8051C11.7426 19.3052 11.826 19.8052 11.9114 20.3051C11.9735 20.6777 12.3601 21.0153 12.7498 21.0153C13.3671 21.0149 15.1168 21.0146 17.9991 21.0146V19.3156L13.4917 19.3159L13.3383 18.5256C13.267 18.0982 12.7875 17.7557 12.3601 17.8269ZM5.65527 17.7714C5.60627 18.202 5.88374 18.6264 6.4037 18.7121C7.02936 18.7872 7.65257 18.8574 8.9037 18.9966C9.38171 19.0543 9.79537 18.6788 9.84437 18.2482C9.89337 17.8177 9.61209 17.3885 9.09594 17.3075C7.84787 17.1623 7.84708 17.1622 6.59594 17.023C6.09383 16.9728 5.70428 17.3409 5.65527 17.7714ZM23.329 15.1654C23.5142 14.7949 23.9648 14.6447 24.3352 14.83C24.6748 14.9998 24.8681 15.4699 24.6706 15.8362C24.3787 16.4323 24.0594 17.0705 23.7128 17.7508C23.9058 17.7508 24.1627 17.7508 24.4836 17.7508C24.9651 17.7508 25.4661 18.2679 25.1634 18.8507C24.7102 19.7863 24.2126 20.7815 23.6706 21.8362C23.4854 22.2067 23.0349 22.3569 22.6644 22.1716C22.3248 22.0018 22.1278 21.5737 22.329 21.1654C22.6468 20.5247 22.9657 19.8865 23.2858 19.2508C23.0248 19.2508 22.7682 19.2508 22.516 19.2508C22.1378 19.2508 21.5347 18.801 21.8362 18.1509C22.0373 17.7175 22.5348 16.7223 23.329 15.1654Z" fill="#1A1C1F"/>
</g>
<defs>
<clipPath id="clip0_2214_6724">
<rect width="32" height="32" fill="white"/>
</clipPath>
</defs>
</svg>

<svg xmlns="http://www.w3.org/2000/svg" width="32" height="32" fill="none"><g clip-path="url(#a)"><path fill="#1A1C1F" fill-rule="evenodd" d="M22.438 5.18c.884.044 1.753.431 2.287 1.15a.85.85 0 0 1-.174 1.19.86.86 0 0 1-1.19-.175c-.189-.254-.516-.438-.923-.464-2.125-.088-4.275-.186-6.413-.185-2.155.001-4.318.049-6.464.19-.488.037-.988.374-1.114.892Q7.997 9.638 7.12 13q5.906-.144 8.88-.143c.652 0 1.513.02 2.002.039A3 3 0 0 1 21 10c0-.5.5-1 1-1h3c.5 0 1 .5 1 1a3 3 0 0 1 3 3c.5 0 1 .5 1 1v1c0 .5-.5 1-1 .999v8a3 3 0 0 1-3 3h-5a3 3 0 0 1-2.985-2.691q-.68.04-2.277.04T9 24.002v1c0 .445-.554 1-1 1H6c-.5 0-1-.5-1-1l-.016-2.3a3.2 3.2 0 0 1-.408-1.194l-.357-3.655Q4.122 16.37 4.142 16L2.967 16C2.414 16 2 15.519 2 14.968v-1c0-.553.414-.966.967-.966L5.37 13l1.426-5.63C7.1 6.159 8.161 5.248 9.561 5.186c3.208-.101 4.853-.199 6.475-.185 1.598.013 3.83.091 6.402.18M26 11.7h-5c-.673 0-1.3.571-1.3 1.3v11c0 .674.629 1.3 1.3 1.3h5c.673 0 1.21-.445 1.3-1.3V13c0-.672-.615-1.3-1.3-1.3m-13.64 6.127c-.427.071-.764.452-.699.978q.123.75.25 1.5c.063.373.45.71.839.71H18v-1.7h-4.508l-.154-.79c-.071-.427-.55-.77-.978-.698m-6.705-.056c-.049.431.229.855.749.941.625.075 1.249.145 2.5.285.478.057.891-.318.94-.749.05-.43-.232-.86-.748-.94-1.248-.146-1.249-.146-2.5-.285a.855.855 0 0 0-.94.748m17.674-2.606a.75.75 0 0 1 1.006-.335c.34.17.533.64.336 1.006q-.439.894-.958 1.915h.77c.482 0 .983.517.68 1.1q-.68 1.402-1.492 2.985a.75.75 0 1 1-1.342-.67q.477-.962.957-1.915h-.77c-.378 0-.981-.45-.68-1.1q.302-.65 1.493-2.986" clip-rule="evenodd"/></g><defs><clipPath id="a"><path fill="#fff" d="M0 0h32v32H0z"/></clipPath></defs></svg>
